; generated by SuperSlicer 2.3.57 on 2022-04-21 at 01:11:42 UTC


;
;

;
;
; 

; external perimeters extrusion width = 0.41mm
; perimeters extrusion width = 0.44mm
; infill extrusion width = 0.42mm
; solid infill extrusion width = 0.44mm
; top infill extrusion width = 0.42mm
; first layer extrusion width = 0.54mm

; object:{"name":"lower","id":"lower.obj id:0 copy 0","object_center":[116.966489,148.281750,0.000000],"boundingbox_center":[116.966489,148.281750,11.259766],"boundingbox_size":[144.353333,105.411301,22.519536]}
; plater:{"center":[116.966489,148.281750,0.000000],"boundingbox_center":[116.966489,148.281750,11.259766],"boundingbox_size":[144.353333,105.411301,22.519536]}

M73 P0 R473
;TYPE:Custom
; custom gcode: start_gcode
G90 ; use absolute coordinates
M83 ; extruder relative mode
M104 S225 ; set extruder temp
M140 S60 ; set bed temp
M106 S255

;HEIGHT:0.12
; custom gcode: before_layer_gcode
;BEFORE_LAYER_CHANGE
;15.92

; custom gcode end: before_layer_gcode

;WIPE_START
G1 F7200
G1 X161.438 Y97.785 E-0.09318
G1 X161.015 Y97.942 E-0.12506
G1 X159.06 Y97.942 E-0.54177
;WIPE_END
G1 E-0.04 F2100
; stop printing object lower.obj id:0 copy 0
G1 Z15.92 F9000
; custom gcode: layer_gcode
;AFTER_LAYER_CHANGE
;15.92
; custom gcode end: layer_gcode

; INIT printing object lower.obj id:0 copy 0
; printing object lower.obj id:0 copy 0
M204 S1500
G1 X159.039 Y101.837
M204 S500
G1 X159.018 Y105.731
G1 E0.8 F2100
;TYPE:Internal perimeter
;WIDTH:0.44
G1 F2400
G1 X159.15 Y105.732 E0.00273
G1 X159.15 Y107.608 E0.03878
G1 X162.077 Y107.608 E0.06049
G1 X162.077 Y108.83 E0.02525
G1 X161.643 Y109.275 E0.01284
G1 X72.308 Y109.275 E1.84629
G1 X71.875 Y108.83 E0.01284
G1 X71.875 Y107.608 E0.02525
G1 X74.802 Y107.608 E0.06049
G1 X74.802 Y105.732 E0.03878
G1 X77.51 Y105.717 E0.05597
G1 X82.369 Y105.653 E0.10044
G1 X86.133 Y105.694 E0.07779
G1 X88.59 Y105.658 E0.05078
G1 X95.873 Y105.739 E0.15053
G1 X108.584 Y105.739 E0.2627
G1 X108.584 Y106.941 E0.02484
G1 X125.328 Y106.941 E0.34605
G1 X125.328 Y105.739 E0.02484
G1 X138.078 Y105.739 E0.2635
G1 X145.362 Y105.658 E0.15053
G1 X147.818 Y105.694 E0.05078
G1 X151.582 Y105.653 E0.07779
G1 X156.442 Y105.717 E0.10044
G1 X158.958 Y105.731 E0.052
M204 S1500
G1 X159.261 Y105.525 F9000
M204 S500
G1 X159.564 Y105.32
G1 F2400
G1 X159.564 Y107.194 E0.03873
G1 X162.491 Y107.194 E0.06049
G1 X162.491 Y108.998 E0.03729
G1 X161.818 Y109.689 E0.01993
G1 X72.133 Y109.689 E1.85352
G1 X71.461 Y108.998 E0.01993
G1 X71.461 Y107.194 E0.03729
G1 X74.387 Y107.194 E0.06049
G1 X74.387 Y105.32 E0.03873
G1 X77.506 Y105.303 E0.06446
G1 X82.369 Y105.239 E0.10051
G1 X86.132 Y105.28 E0.07778
G1 X88.589 Y105.244 E0.05078
G1 X95.876 Y105.325 E0.1506
G1 X108.998 Y105.325 E0.27121
G1 X108.998 Y106.526 E0.02484
G1 X124.914 Y106.526 E0.32893
G1 X124.914 Y105.325 E0.02484
G1 X138.076 Y105.325 E0.27202
G1 X145.362 Y105.244 E0.1506
G1 X147.819 Y105.28 E0.05078
G1 X151.583 Y105.239 E0.07778
G1 X156.446 Y105.303 E0.10051
G1 X159.504 Y105.319 E0.06322
M204 S1500
G1 X159.734 Y106.056 F9000
M204 S500
G1 X159.965 Y106.794
;TYPE:External perimeter
;WIDTH:0.412
G1 F1500
G1 X162.891 Y106.794 E0.0564
G1 X162.891 Y109.161 E0.04561
G1 X161.987 Y110.089 E0.02497
G1 X71.964 Y110.089 E1.73474
G1 X71.06 Y109.161 E0.02497
G1 X71.06 Y106.794 E0.04561
G1 X73.987 Y106.794 E0.0564
G1 X73.987 Y104.922 E0.03607
G1 X77.502 Y104.902 E0.06774
G1 X82.368 Y104.838 E0.09378
G1 X86.132 Y104.88 E0.07252
G1 X88.588 Y104.844 E0.04735
G1 X95.878 Y104.924 E0.14048
G1 X109.399 Y104.924 E0.26055
G1 X109.399 Y106.126 E0.02316
G1 X124.514 Y106.126 E0.29127
G1 X124.514 Y104.924 E0.02316
G1 X138.074 Y104.924 E0.2613
G1 X145.363 Y104.844 E0.14048
G1 X147.82 Y104.88 E0.04735
G1 X151.583 Y104.838 E0.07252
G1 X156.449 Y104.902 E0.09378
G1 X159.965 Y104.922 E0.06774
G1 X159.965 Y106.734 E0.03492
;WIPE_START
G1 X159.965 Y107.194 F9000
;WIPE_END
M204 S1500
G1 X159.406 Y106.882
M204 S500
G1 X158.847 Y106.57
;TYPE:Internal infill
;WIDTH:0.42
G1 F3000
G1 X158.017 Y106.442 E0.01652
G1 X157.59 Y106.247 E0.00924
G1 X157.285 Y106.024 E0.00742
;WIPE_START
G1 F7200
G1 X157.59 Y106.247 E-0.10453
G1 X158.017 Y106.442 E-0.13018
G1 X158.847 Y106.57 E-0.23267
;WIPE_END
G1 E-0.33261 F2100
M204 S1500
G1 X157.481 Y107.771 F9000
M204 S500
G1 X156.115 Y108.972
G1 E0.8 F2100
G1 F3000
G1 X155.452 Y108.528 E0.0157
G1 X155.024 Y108.215 E0.01042
G1 X154.597 Y108.02 E0.00924
G1 X153.741 Y107.888 E0.01702
G1 X153.314 Y107.995 E0.00867
G1 X152.886 Y108.34 E0.01081
G1 X152.175 Y108.972 E0.0187
G1 X149.273 Y108.972 E0.05709
G1 X148.61 Y108.528 E0.0157
G1 X148.182 Y108.215 E0.01042
G1 X147.755 Y108.02 E0.00924
G1 X146.899 Y107.888 E0.01702
G1 X146.472 Y107.995 E0.00867
G1 X146.044 Y108.34 E0.01081
G1 X145.334 Y108.972 E0.0187
G1 X142.431 Y108.972 E0.05709
G1 X141.768 Y108.528 E0.0157
G1 X141.341 Y108.215 E0.01042
G1 X140.913 Y108.02 E0.00924
G1 X140.058 Y107.888 E0.01702
G1 X139.63 Y107.995 E0.00867
G1 X139.202 Y108.34 E0.01081
G1 X138.492 Y108.972 E0.0187
G1 X135.59 Y108.972 E0.05709
G1 X134.926 Y108.528 E0.0157
G1 X134.499 Y108.215 E0.01042
G1 X134.071 Y108.02 E0.00924
G1 X133.216 Y107.888 E0.01702
G1 X132.788 Y107.995 E0.00867
G1 X132.361 Y108.34 E0.01081
G1 X131.65 Y108.972 E0.0187
G1 X128.748 Y108.972 E0.05709
G1 X128.085 Y108.528 E0.0157
G1 X127.657 Y108.215 E0.01042
G1 X127.229 Y108.02 E0.00924
G1 X126.374 Y107.888 E0.01702
G1 X125.946 Y107.995 E0.00867
G1 X125.519 Y108.34 E0.01081
G1 X124.808 Y108.972 E0.0187
G1 X121.906 Y108.972 E0.05709
G1 X121.243 Y108.528 E0.0157
G1 X120.815 Y108.215 E0.01042
G1 X120.388 Y108.02 E0.00924
G1 X119.532 Y107.888 E0.01702
G1 X119.105 Y107.995 E0.00867
G1 X118.677 Y108.34 E0.01081
G1 X117.966 Y108.972 E0.0187
G1 X115.064 Y108.972 E0.05709
G1 X114.401 Y108.528 E0.0157
G1 X113.973 Y108.215 E0.01042
G1 X113.546 Y108.02 E0.00924
G1 X112.69 Y107.888 E0.01702
G1 X112.263 Y107.995 E0.00867
G1 X111.835 Y108.34 E0.01081
G1 X111.125 Y108.972 E0.0187
G1 X108.222 Y108.972 E0.05709
G1 X107.559 Y108.528 E0.0157
G1 X107.132 Y108.215 E0.01042
G1 X106.704 Y108.02 E0.00924
G1 X105.849 Y107.888 E0.01702
G1 X105.421 Y107.995 E0.00867
G1 X104.993 Y108.34 E0.01081
G1 X104.283 Y108.972 E0.0187
G1 X101.381 Y108.972 E0.05709
G1 X100.717 Y108.528 E0.0157
G1 X100.29 Y108.215 E0.01042
G1 X99.862 Y108.02 E0.00924
G1 X99.007 Y107.888 E0.01702
G1 X98.579 Y107.995 E0.00867
G1 X98.152 Y108.34 E0.01081
G1 X97.441 Y108.972 E0.0187
G1 X94.539 Y108.972 E0.05709
G1 X93.876 Y108.528 E0.0157
G1 X93.448 Y108.215 E0.01042
G1 X93.02 Y108.02 E0.00924
G1 X92.165 Y107.888 E0.01702
G1 X91.737 Y107.995 E0.00867
G1 X91.31 Y108.34 E0.01081
G1 X90.599 Y108.972 E0.0187
G1 X87.697 Y108.972 E0.05709
G1 X87.034 Y108.528 E0.0157
G1 X86.606 Y108.215 E0.01042
G1 X86.178 Y108.02 E0.00924
G1 X85.323 Y107.888 E0.01702
G1 X84.896 Y107.995 E0.00867
G1 X84.468 Y108.34 E0.01081
G1 X83.757 Y108.972 E0.0187
G1 X80.855 Y108.972 E0.05709
G1 X80.192 Y108.528 E0.0157
G1 X79.764 Y108.215 E0.01042
G1 X79.337 Y108.02 E0.00924
G1 X78.481 Y107.888 E0.01702
G1 X78.054 Y107.995 E0.00867
G1 X77.626 Y108.34 E0.01081
G1 X76.916 Y108.972 E0.0187
G1 X74.013 Y108.972 E0.05709
G1 X73.35 Y108.528 E0.0157
G1 X72.922 Y108.215 E0.01042
G1 X72.495 Y108.02 E0.00924
G1 X72.178 Y107.971 E0.00631
G1 X72.178 Y107.911 E0.00118
G1 X75.104 Y107.911 E0.05757
G1 X75.104 Y106.033 E0.03694
G1 X75.195 Y106.032 E0.00178
G1 X75.488 Y106.247 E0.00716
G1 X75.916 Y106.442 E0.00924
G1 X76.771 Y106.574 E0.01702
G1 X77.199 Y106.467 E0.00867
G1 X77.626 Y106.122 E0.01081
G1 X77.714 Y106.017 E0.00269
G1 X81.94 Y105.961 E0.08311
G1 X82.33 Y106.247 E0.00952
G1 X82.758 Y106.442 E0.00924
G1 X83.613 Y106.574 E0.01702
G1 X84.04 Y106.467 E0.00867
G1 X84.468 Y106.122 E0.01081
G1 X84.587 Y105.98 E0.00364
G1 X86.134 Y105.997 E0.03042
G1 X88.59 Y105.961 E0.04833
G1 X88.784 Y105.963 E0.0038
G1 X89.172 Y106.247 E0.00946
G1 X89.599 Y106.442 E0.00924
G1 X90.455 Y106.574 E0.01702
G1 X90.882 Y106.467 E0.00867
G1 X91.31 Y106.122 E0.01081
G1 X91.419 Y105.992 E0.00333
G1 X95.731 Y106.04 E0.08482
G1 X96.014 Y106.247 E0.00689
G1 X96.441 Y106.442 E0.00924
G1 X97.296 Y106.574 E0.01702
G1 X97.724 Y106.467 E0.00867
G1 X98.152 Y106.122 E0.01081
G1 X98.219 Y106.042 E0.00206
G1 X102.575 Y106.042 E0.08568
G1 X102.855 Y106.247 E0.00684
G1 X103.283 Y106.442 E0.00924
G1 X104.138 Y106.574 E0.01702
G1 X104.566 Y106.467 E0.00867
G1 X104.993 Y106.122 E0.01081
G1 X105.061 Y106.042 E0.00206
;WIPE_START
G1 F7200
G1 X104.993 Y106.122 E-0.02897
G1 X104.566 Y106.467 E-0.15222
G1 X104.138 Y106.574 E-0.12219
G1 X103.283 Y106.442 E-0.2398
G1 X102.855 Y106.247 E-0.13018
G1 X102.603 Y106.062 E-0.08663
;WIPE_END
G1 E-0.04 F2100
M204 S1500
G1 X116.273 Y106.052 F9000
M204 S500
G1 X129.942 Y106.042
G1 E0.8 F2100
G1 F3000
G1 X130.223 Y106.247 E0.00684
G1 X130.65 Y106.442 E0.00924
G1 X131.505 Y106.574 E0.01702
G1 X131.933 Y106.467 E0.00867
G1 X132.361 Y106.122 E0.01081
G1 X132.428 Y106.042 E0.00206
G1 X136.784 Y106.042 E0.08568
G1 X137.064 Y106.247 E0.00684
G1 X137.492 Y106.442 E0.00924
G1 X138.347 Y106.574 E0.01702
G1 X138.775 Y106.467 E0.00867
G1 X139.202 Y106.122 E0.01081
G1 X139.281 Y106.028 E0.0024
G1 X143.543 Y105.981 E0.08383
G1 X143.906 Y106.247 E0.00886
G1 X144.334 Y106.442 E0.00924
G1 X145.189 Y106.574 E0.01702
G1 X145.617 Y106.467 E0.00867
G1 X146.044 Y106.122 E0.01081
G1 X146.17 Y105.973 E0.00383
G1 X147.818 Y105.997 E0.03242
G1 X150.368 Y105.969 E0.05016
G1 X150.748 Y106.247 E0.00926
G1 X151.176 Y106.442 E0.00924
G1 X152.031 Y106.574 E0.01702
G1 X152.458 Y106.467 E0.00867
G1 X152.886 Y106.122 E0.01081
G1 X153.01 Y105.975 E0.00379
;WIPE_START
G1 F7200
G1 X152.886 Y106.122 E-0.05333
G1 X152.458 Y106.467 E-0.15222
G1 X152.031 Y106.574 E-0.12219
G1 X151.176 Y106.442 E-0.2398
G1 X150.748 Y106.247 E-0.13018
G1 X150.567 Y106.114 E-0.06227
;WIPE_END
G1 E-0.04 F2100
M204 S1500
G1 X154.792 Y107.543 F9000
M204 S500
G1 X159.017 Y108.972
G1 E0.8 F2100
G1 F3000
G1 X159.728 Y108.34 E0.0187
G1 X160.155 Y107.995 E0.01081
G1 X160.491 Y107.911 E0.00681
G1 X160.733 Y107.911 E0.00475
G1 X161.438 Y108.02 E0.01404
G1 X161.774 Y108.173 E0.00725
;WIPE_START
M73 P91 R39
G1 F7200
G1 X161.438 Y108.02 E-0.10216
G1 X160.733 Y107.911 E-0.19784
G1 X160.491 Y107.911 E-0.06698
G1 X160.155 Y107.995 E-0.09588
G1 X159.728 Y108.34 E-0.15222
G1 X159.337 Y108.688 E-0.14491
;WIPE_END
G1 E-0.04 F2100
M204 S1500
G1 X159.243 Y104.409 F9000
M204 S500
G1 X159.15 Y100.13
G1 E0.8 F2100
;TYPE:Internal perimeter
;WIDTH:0.44
G1 F2400
G1 X154.823 Y100.151 E0.08943
G1 X149.568 Y100.21 E0.10861
G1 X145.932 Y100.157 E0.07514
G1 X144.804 Y100.169 E0.02332
G1 X138.077 Y100.109 E0.13902
G1 X124.196 Y100.111 E0.28689
G1 X124.042 Y99.199 E0.01911
G1 X109.87 Y99.199 E0.29289
G1 X109.717 Y100.111 E0.01911
G1 X95.874 Y100.109 E0.28608
G1 X89.148 Y100.169 E0.13902
G1 X88.019 Y100.157 E0.02332
G1 X84.384 Y100.21 E0.07514
G1 X79.129 Y100.151 E0.10861
G1 X74.802 Y100.13 E0.08943
G1 X74.802 Y98.314 E0.03754
G1 X71.875 Y98.314 E0.06049
G1 X71.875 Y96.939 E0.02841
G1 X72.254 Y96.615 E0.01031
G1 X161.698 Y96.615 E1.84852
G1 X162.077 Y96.939 E0.01031
G1 X162.077 Y98.314 E0.02841
G1 X159.15 Y98.314 E0.06049
G1 X159.15 Y100.07 E0.0363
;WIPE_START
G1 F7200
G1 X156.408 Y100.121 E-0.76
;WIPE_END
G1 E-0.04 F2100
M204 S1500
G1 X159.449 Y99.425 F9000
M204 S500
G1 X162.491 Y98.728
G1 E0.8 F2100
G1 F2400
G1 X159.564 Y98.728 E0.06049
G1 X159.564 Y100.543 E0.0375
G1 X154.826 Y100.565 E0.09792
G1 X149.567 Y100.624 E0.1087
G1 X145.931 Y100.571 E0.07514
G1 X144.804 Y100.584 E0.0233
G1 X138.075 Y100.524 E0.13907
G1 X123.864 Y100.525 E0.2937
G1 X123.812 Y100.326 E0.00426
G1 X123.692 Y99.613 E0.01493
G1 X110.221 Y99.613 E0.27841
G1 X110.101 Y100.326 E0.01493
G1 X110.048 Y100.525 E0.00426
G1 X95.876 Y100.524 E0.29289
G1 X89.148 Y100.584 E0.13907
G1 X88.02 Y100.571 E0.0233
G1 X84.385 Y100.624 E0.07514
G1 X79.125 Y100.565 E0.1087
G1 X74.387 Y100.543 E0.09792
G1 X74.387 Y98.728 E0.0375
G1 X71.461 Y98.728 E0.06049
G1 X71.461 Y96.748 E0.04091
G1 X72.101 Y96.201 E0.01741
G1 X161.851 Y96.201 E1.85484
G1 X162.491 Y96.748 E0.01741
G1 X162.491 Y98.668 E0.03967
;WIPE_START
G1 F7200
G1 X159.749 Y98.724 E-0.76
;WIPE_END
G1 E-0.04 F2100
M204 S1500
G1 X159.857 Y98.926 F9000
M204 S500
G1 X159.965 Y99.128
G1 E0.8 F2100
;TYPE:External perimeter
;WIDTH:0.412
G1 F1500
G1 X159.965 Y100.941 E0.03493
G1 X154.829 Y100.965 E0.09896
G1 X149.566 Y101.024 E0.10142
G1 X145.931 Y100.972 E0.07007
G1 X144.804 Y100.984 E0.0217
G1 X138.074 Y100.924 E0.12971
G1 X123.556 Y100.925 E0.27975
G1 X123.42 Y100.41 E0.01026
G1 X123.353 Y100.013 E0.00775
G1 X110.559 Y100.013 E0.24654
G1 X110.492 Y100.41 E0.00775
G1 X110.356 Y100.925 E0.01026
G1 X95.878 Y100.924 E0.279
G1 X89.147 Y100.984 E0.12971
G1 X88.021 Y100.972 E0.0217
G1 X84.385 Y101.024 E0.07007
G1 X79.122 Y100.965 E0.10142
G1 X73.987 Y100.941 E0.09896
G1 X73.987 Y99.128 E0.03493
G1 X71.06 Y99.128 E0.0564
G1 X71.06 Y96.564 E0.04941
G1 X71.953 Y95.801 E0.02264
G1 X161.998 Y95.801 E1.73516
G1 X162.891 Y96.564 E0.02264
G1 X162.891 Y99.128 E0.04941
G1 X160.025 Y99.128 E0.05524
;WIPE_START
G1 X159.565 Y99.128 F9000
;WIPE_END
;WIPE_START
G1 F7200
G1 X159.765 Y100.742 E-0.45053
G1 X158.648 Y100.747 E-0.30947
;WIPE_END
G1 E-0.04 F2100
M204 S1500
G1 X115.413 Y99.325 F9000
M204 S500
G1 X72.178 Y97.902
G1 E0.8 F2100
;TYPE:Internal infill
;WIDTH:0.42
G1 F3000
G1 X72.495 Y97.758 E0.00686
G1 X73.35 Y97.625 E0.01702
G1 X73.778 Y97.733 E0.00867
G1 X74.123 Y98.011 E0.00872
G1 X75.104 Y98.011 E0.01931
G1 X75.104 Y99.124 E0.0219
G1 X75.488 Y99.405 E0.00936
G1 X75.916 Y99.6 E0.00924
G1 X76.771 Y99.733 E0.01702
G1 X77.199 Y99.625 E0.00867
G1 X77.626 Y99.28 E0.01081
G1 X78.481 Y98.265 E0.0261
G1 X78.909 Y97.952 E0.01042
G1 X79.337 Y97.758 E0.00924
G1 X80.192 Y97.625 E0.01702
G1 X80.62 Y97.733 E0.00867
G1 X81.047 Y98.078 E0.01081
G1 X81.902 Y99.092 E0.0261
G1 X82.33 Y99.405 E0.01042
G1 X82.758 Y99.6 E0.00924
G1 X83.613 Y99.733 E0.01702
G1 X84.04 Y99.625 E0.00867
G1 X84.468 Y99.28 E0.01081
G1 X85.323 Y98.265 E0.0261
G1 X85.751 Y97.952 E0.01042
G1 X86.178 Y97.758 E0.00924
G1 X87.034 Y97.625 E0.01702
G1 X87.461 Y97.733 E0.00867
G1 X87.889 Y98.078 E0.01081
G1 X88.744 Y99.092 E0.0261
G1 X89.172 Y99.405 E0.01042
G1 X89.599 Y99.6 E0.00924
G1 X90.455 Y99.733 E0.01702
G1 X90.882 Y99.625 E0.00867
G1 X91.31 Y99.28 E0.01081
G1 X92.165 Y98.265 E0.0261
G1 X92.593 Y97.952 E0.01042
G1 X93.02 Y97.758 E0.00924
G1 X93.876 Y97.625 E0.01702
G1 X94.303 Y97.733 E0.00867
G1 X94.731 Y98.078 E0.01081
G1 X95.586 Y99.092 E0.0261
G1 X96.014 Y99.405 E0.01042
G1 X96.441 Y99.6 E0.00924
G1 X97.296 Y99.733 E0.01702
G1 X97.724 Y99.625 E0.00867
G1 X98.152 Y99.28 E0.01081
G1 X99.007 Y98.265 E0.0261
G1 X99.434 Y97.952 E0.01042
G1 X99.862 Y97.758 E0.00924
G1 X100.717 Y97.625 E0.01702
G1 X101.145 Y97.733 E0.00867
G1 X101.573 Y98.078 E0.01081
G1 X102.428 Y99.092 E0.0261
G1 X102.855 Y99.405 E0.01042
G1 X103.283 Y99.6 E0.00924
G1 X104.138 Y99.733 E0.01702
G1 X104.566 Y99.625 E0.00867
G1 X104.993 Y99.28 E0.01081
G1 X105.849 Y98.265 E0.0261
G1 X106.276 Y97.952 E0.01042
G1 X106.704 Y97.758 E0.00924
G1 X107.559 Y97.625 E0.01702
G1 X107.987 Y97.733 E0.00867
G1 X108.414 Y98.078 E0.01081
G1 X109.27 Y99.092 E0.0261
G1 X109.547 Y99.295 E0.00676
G1 X109.614 Y98.896 E0.00797
G1 X112.159 Y98.896 E0.05005
G1 X112.69 Y98.265 E0.01623
G1 X113.118 Y97.952 E0.01042
G1 X113.546 Y97.758 E0.00924
G1 X114.401 Y97.625 E0.01702
G1 X114.829 Y97.733 E0.00867
G1 X115.256 Y98.078 E0.01081
G1 X115.946 Y98.896 E0.02105
G1 X119.001 Y98.896 E0.06008
G1 X119.532 Y98.265 E0.01623
G1 X119.96 Y97.952 E0.01042
G1 X120.388 Y97.758 E0.00924
G1 X121.243 Y97.625 E0.01702
G1 X121.67 Y97.733 E0.00867
G1 X122.098 Y98.078 E0.01081
G1 X122.788 Y98.896 E0.02105
G1 X124.298 Y98.896 E0.02972
G1 X124.433 Y99.697 E0.01597
G1 X124.664 Y99.733 E0.00459
G1 X125.091 Y99.625 E0.00867
G1 X125.519 Y99.28 E0.01081
G1 X126.374 Y98.265 E0.0261
G1 X126.802 Y97.952 E0.01042
G1 X127.229 Y97.758 E0.00924
G1 X128.085 Y97.625 E0.01702
G1 X128.512 Y97.733 E0.00867
G1 X128.94 Y98.078 E0.01081
G1 X129.795 Y99.092 E0.0261
G1 X130.223 Y99.405 E0.01042
G1 X130.65 Y99.6 E0.00924
